X: 27622
T: Moon In May, The
R: reel
M: 4/4
K: Bminor
|:AG|FBBA G2FE|FDFA GFE2|FBBA G2FE|FBBd cBAG|
FBBA G2FE|FDFA GFE2|FBdc BAG2|F^AcA B2:|
|:Bc|dFFd FFdB|c>dcB AGFE|FBBF BBFB|A>GFE GFBc|
dFFd AAdf|e>dcB ABc2|dcBc- cBAG|F/E/Fdc B2:|
|:de|f3e d2f2|e3d c2e2|dcBc BAdc|BAGF- F2de|
f3e d2f2|a3f e2c2|dcBe dcfe|dc2A B2:|

